svg/fluentui-system-icons/ic_fluent_inking_tool_accent_24_filled.svg

<svg width="24" height="24" viewBox="0 0 24 24" fill="none" xmlns="http://www.w3.org/2000/svg">
<path d="M4 7H20.25C20.3683 7 20.4675 6.91777 20.4934 6.80732L20.5 6.75V3L3.75 3V6.75C3.75 6.86835 3.83223 6.96749 3.94268 6.9934L4 7ZM11.9759 13.9457L14.6171 7.9987L15.5 7.5L16.2584 7.9987L13.3467 14.5546C13.2264 14.8255 12.9578 15.0002 12.6613 15.0002C12.1186 15.0002 11.7556 14.4417 11.9759 13.9457ZM13 19C13 20.1046 12.5523 21 12 21C11.4477 21 11 20.1046 11 19C11 17.8954 11.4477 17 12 17C12.5523 17 13 17.8954 13 19Z" fill="#212121"/>
</svg>

<svg xmlns="http://www.w3.org/2000/svg" width="24" height="24"><path d="M4 7h16.25a.25.25 0 0 0 .243-.193l.007-.057V3H3.75v3.75a.25.25 0 0 0 .193.243L4 7Zm7.976 6.946 2.641-5.947.883-.499.758.499-2.911 6.556a.75.75 0 1 1-1.371-.61ZM13 19c0 1.105-.448 2-1 2s-1-.895-1-2 .448-2 1-2 1 .895 1 2Z"/></svg>
